X: 489
T: MY OWN SWEETHEART
B: O'Neill's 489
Z: 1999 by John Chambers <jc@trillian.mit.edu>
N: "Moderate"
N: Collected by "J.O'Neill"
M: C
L: 1/8
K:F
(f>e) \
| dc AF DEFG | Acde f2(fe) | decA G>AGF | D6 (f>e)|
| dc AF DEFG | Acde f2(ef) | d>ecA G>AGF | F6 ||
|| (AG) \
| FA (cd/e/) f2(ef) | {a}gefd cAF>G | Acdf ecd=B | c6 (f>e) |
| dc AF DEFG | Acde f2(ef) | d>ecA G>AGF | F6 |]


